client/public/img/misc/finally_killed.svg

<?xml version="1.0" encoding="UTF-8" standalone="no"?>
<svg
   width="17"
   height="17"
   viewBox="0 0 17 17"
   fill="none"
   version="1.1"
   id="svg1"
   xmlns="http://www.w3.org/2000/svg"
   xmlns:svg="http://www.w3.org/2000/svg">
  <defs
     id="defs1" />
  <path
     fill-rule="evenodd"
     clip-rule="evenodd"
     d="M0.0488281 8.11621C0.0488281 3.69824 3.63086 0.116211 8.04883 0.116211C12.4668 0.116211 16.0488 3.69824 16.0488 8.11621C16.0488 12.5342 12.4668 16.1162 8.04883 16.1162C3.63086 16.1162 0.0488281 12.5342 0.0488281 8.11621ZM2.87207 4.35254C2.28613 5.15723 1.88184 6.10449 1.72363 7.13184H4.94922L5.09766 6.57812L2.87207 4.35254ZM4.28613 2.93848L5.69434 4.34668L6.00684 3.17578C6.05176 3.00488 6.15234 2.85449 6.29199 2.74707C6.43262 2.63965 6.60352 2.58203 6.78027 2.58203C6.95703 2.58203 7.12793 2.63965 7.26855 2.74707C7.4082 2.85449 7.50879 3.00488 7.55469 3.17578L8.66113 7.31348L9.69434 8.34668L9.7627 8.0918C9.80859 7.92188 9.90918 7.77148 10.0488 7.66406C10.1592 7.5791 10.29 7.52441 10.4277 7.50488C10.4639 7.5 10.5 7.49805 10.5361 7.49805H14.4189C14.1084 4.25391 11.375 1.71582 8.04883 1.71582C6.64258 1.71582 5.3418 2.16992 4.28613 2.93848ZM7.43359 8.91406L8.54297 13.0557C8.58887 13.2256 8.68848 13.377 8.8291 13.4844C8.96875 13.5918 9.14062 13.6504 9.31641 13.6504C9.49316 13.6504 9.66504 13.5918 9.80469 13.4844C9.87305 13.4316 9.93164 13.3682 9.97949 13.2979C10.0293 13.2246 10.0674 13.1426 10.0898 13.0557L10.4033 11.8838L11.8125 13.293C10.7559 14.0625 9.45605 14.5166 8.04883 14.5166C4.7207 14.5166 1.98633 11.9766 1.67773 8.72949H5.56055C5.73633 8.72949 5.9082 8.67188 6.04785 8.56543C6.1875 8.45898 6.28906 8.30859 6.33496 8.13867L6.40332 7.88379L7.43359 8.91406ZM13.2266 11.8789L11.002 9.6543L11.1504 9.09863H14.374C14.2158 10.127 13.8125 11.0732 13.2266 11.8789Z"
     fill="white"
     id="path1" />
</svg>

<svg xmlns="http://www.w3.org/2000/svg" width="17" height="17" fill="none"><path fill="#fff" fill-rule="evenodd" d="M.049 8.116a8 8 0 1 1 16 .001 8 8 0 0 1-16 0m2.823-3.763a6.4 6.4 0 0 0-1.148 2.779h3.225l.149-.554zm1.414-1.415 1.408 1.409.313-1.171a.796.796 0 0 1 .773-.594.8.8 0 0 1 .775.594L8.66 7.313l1.033 1.034.069-.255a.805.805 0 0 1 .773-.594h3.883a6.4 6.4 0 0 0-10.133-4.56m3.148 5.976 1.109 4.142a.802.802 0 0 0 1.547 0l.313-1.172 1.41 1.409A6.4 6.4 0 0 1 1.678 8.729H5.56a.805.805 0 0 0 .774-.59l.068-.255zm5.793 2.965-2.225-2.225.148-.555h3.224a6.4 6.4 0 0 1-1.147 2.78" clip-rule="evenodd"/></svg>
